X:77
T:Boscawen's Frolick. THO2.077
O:London
M:6/8
L:1/8
Q:3/8=100
B:Thompson's Compleat Coll. of 200 Favourite Country Dances, vol.2,1765
Z:Transcribed and edited by Fynn Titford-Mock, 2007
Z:abc's:JA/VMP 2009
K:G
c|(B/c/d)B G2 B|G2B dBG|(c/d/e)c A2c|c2e gec| (B/c/d)B G2 B|G2B dBG|
(c/d/e)c A2c|(f/g/a)f g2::d|g2b bgd|(e/f/g)f gdB|Ace edc|
BAG FED|G2B BGB| A2c cAc|B2d (e/f/g)e|(f/g/a)f g2:|

